X:1
T:On Calvary’s Cross One Day
T:On Calvary’s Cross One Day
T:Ira Bishop Wilson
T:May M. Brewster, 1920
T:Public Domain Courtesy of the Cyber Hymnal™
T:Public Domain Courtesy of the Cyber Hymnal™
C:Ira Bishop Wilson
Z:Public Domain
Z:Courtesy of the Cyber Hymnal™
%%score ( 1 2 ) ( 3 4 )
L:1/8
M:3/4
K:Bb
V:1 treble 
V:2 treble 
V:3 bass 
V:4 bass 
V:1
 [DF]2 | [Fd]4 [DB]2 | [Ge]4 [Fd]2 | [Ec]3 [D=B] [Ec][Fd] | [DB]2 [DF]2 z2 | [EG]4 [EB]2 | %6
w: 1.~The|Sav- ior|came to|seek and save His|lost ones,|Who had|
w: 2.~’Twas|love, un-|bound- ed|love for us that|led Him|O’er that|
w: 3.~Oh,|hear His|voice so|gent- ly now en-|treat- ing,|Then no|
 [DF]4 [Fd]2 | (G2 A2) [_EB]2 | [Ec]4 F2 | [Fd]4 [DB]2 | [Ge]4 [Fd]2 | [Ec]3 [D=B] [Ec][Fd] | %12
w: wan- dered|far * a-|way; To|res- cue|them from|sin, His life He|
w: lone- ly,|thorn- * strewn|way; For|you and|me He|bore the shame and|
w: long- er|from * Him|stray; Ac-|cept the|gra- cious|call, and leave your|
 [DB]2 [DF]2 [FB]2 | [FA]4 [Fc]2 | [=EA]4 [EG]2 | F6- | !fermata![EF]4 ||"^Refrain" [DF][DB] | %18
w: of- fered On|Cal- vary’s|cross one|day.|||
w: sor- row On|Cal- vary’s|cross that|day.||It was|
w: bur- den At|Cal- vary’s|cross to-|day.|||
 !>![Fd]2 [DB]2 [Ge]2 | !>![Fd]2 [DB]2 [FB]2 | [GB]3 [GB] [FA][EG] | [DF]4 [FB]2 | %22
w: ||||
w: your sin and|my sin that|nailed Him to the|tree, For|
w: ||||
 !>![EA]2 [Ec]2 [Ec]2 | !>![DB]2 [Fd]2 [Fd]2 | [=Ed]3 [Ec] [EG][Ed] | [Fc]4 [Fc]2 | %26
w: ||||
w: your sake and|my sake He|made sal- va- tion|free; No|
w: ||||
 [Fd]2 [Fd]2 [Fd]2 | [Ff]2 [Fd]2 [^Fc]2 | [GB]2 [GB]2 [GB]2 | [Gd]2 [GB]2 [^FA]2 | G2 [GA]2 [GB]2 | %31
w: |||||
w: gift from earth’s|trea- sure His|grace e’er can|mea- sure, But|your love and|
w: |||||
 !>![FBf]2 !fermata![Fd]2 [FB]2 | [Gd][Gc] [FB]2 [FA]2 | !fermata![FB]4 |] %34
w: |||
w: my love is|all He asks to-|day.|
w: |||
V:2
 x2 | x6 | x6 | x6 | x6 | x6 | x6 | =E4 x2 | x4 F2 | x6 | x6 | x6 | x6 | x6 | x6 | C4 D2 | x4 || %17
 x2 | x6 | x6 | x6 | x6 | x6 | x6 | x6 | x6 | x6 | x6 | x6 | x6 | !>!G2 x4 | x6 | x6 | x4 |] %34
V:3
 [B,,B,]2 | [B,,B,]4 [B,,F,]2 | [B,,B,]4 [B,,B,]2 | [F,A,]3 [F,^G,] [F,A,][F,A,] | %4
 [B,,F,]2 [B,,B,]2 z2 | [E,B,]4 [G,B,]2 | B,4 [B,,B,]2 | (B,2 A,2) [C,G,]2 | [F,A,]4 [F,A,]2 | %9
 [B,,B,]4 [B,,F,]2 | [B,,B,]4 [B,,B,]2 | [F,A,]3 [F,^G,] [F,A,][F,A,] | [B,,F,]2 [B,,B,]2 [B,,D]2 | %13
 [C,C]4 [C,A,]2 | [C,C]4 [C,B,]2 | A,4 B,2 | !fermata![F,A,]4 || [B,,B,][B,,B,] | %18
 !>![B,,B,]2 [B,,F,]2 [B,,B,]2 | !>![B,,B,]2 [B,,F,]2 [D,B,]2 | [E,B,]3 [E,B,] [E,B,][E,B,] | %21
 [B,,B,]4 [B,,D]2 | !>![F,C]2 [F,A,]2 F,2 | !>![B,,F,]2 [B,,B,]2 [B,,B,]2 | %24
 [C,B,]3 [C,B,] [C,B,][C,B,] | [F,A,]4 [F,A,]2 | B,2 B,2 B,2 | [B,D]2 B,2 [A,D]2 | %28
 [G,D]2 [G,D]2 [G,D]2 | [B,D]2 [G,D]2 [D,C]2 | !>![E,B,]2 [E,C]2 [=E,^C]2 | %31
 !>![F,D]2 !fermata![F,B,]2 [D,B,]2 | [E,B,][E,C] [F,D]2 (CE) | !fermata![B,,D]4 |] %34
V:4
 x2 | x6 | x6 | x6 | x6 | x6 | B,4 x2 | C,4 x2 | x6 | x6 | x6 | x6 | x6 | x6 | x6 | F,6- | x4 || %17
 x2 | x6 | x6 | x6 | x6 | x4 F,2 | x6 | x6 | x6 | B,2 B,2 B,2 | x2 B,2 x2 | x6 | x6 | x6 | x6 | %32
 x4 F,2 | x4 |] %34

